packages/icons/src/circle-cross.svg

<svg viewBox="0 0 13 13" xmlns="http://www.w3.org/2000/svg"><path clip-rule="evenodd" d="m.166687 6.5013c0 3.49781 2.835533 6.3333 6.333333 6.3333s6.33338-2.83549 6.33338-6.3333c0-3.4978-2.83558-6.333331-6.33338-6.333331s-6.333333 2.835531-6.333333 6.333331zm4.071723-3.0033 2.25958 2.26296 2.26399-2.26329c.49507-.49492 1.23633.24879.74127.7437l-2.26333 2.26263 2.25419 2.25757c.49462.49536-.24731 1.23839-.74193.74303l-2.25486-2.25822-2.25925 2.25856c-.49506.49491-1.23633-.24879-.74126-.74371l2.25858-2.25789-2.25891-2.2623c-.49462-.49536.24731-1.2384.74193-.74304z" fill-rule="evenodd"/></svg>

<svg viewBox="0 0 13 13"  xmlns="http://www.w3.org/2000/svg">
<path fill-rule="evenodd" clip-rule="evenodd" d="M0.166687 6.5013C0.166687 9.99911 3.00222 12.8346 6.50002 12.8346C9.99782 12.8346 12.8334 9.99911 12.8334 6.5013C12.8334 3.0035 9.99782 0.167969 6.50002 0.167969C3.00222 0.167969 0.166687 3.0035 0.166687 6.5013ZM4.23841 3.498L6.49799 5.76096L8.76198 3.49767C9.25705 3.00275 9.99831 3.74646 9.50325 4.24137L7.23992 6.504L9.49411 8.76157C9.98873 9.25693 9.2468 9.99996 8.75218 9.5046L6.49732 7.24638L4.23807 9.50494C3.74301 9.99985 3.00174 9.25615 3.49681 8.76123L5.75539 6.50334L3.49648 4.24104C3.00186 3.74568 3.74379 3.00264 4.23841 3.498Z" />
</svg>
